X: 8574
T: Crocus
R: waltz
M: 3/4
K: Gminor
|:d2 de dc|A4 BA|F3 A GF|D4 FA|
d2 de dc|A4 BA|G2 GA(3BAG|1 A2 FD FA:|2 A5||
|:d2 de dc|g4 fe|d2 de dc|Bc AB GF|
d2 de dc|g4 ba|g2 ga (3bag|1 A4 fd:|2 a5||

